X:1
T:Finsk Humppa
R:Humppa
M:4/4
Z:Anton Teljebäck
L:1/8
K:Am
|: E | A>B cc dc2^d | e2 c/d/c/B/ A3^c | d>e ff gf2^g | a2 f/g/f/e/ d4 |
 c>d ee de d2 | c>d e/f/e/d/ cB A2 | a2 A>B cd cB |1 c/B/(A A)^G A3 :|2 c/B/(A A)^G ABcd |
|:e2dc2edc | e2dc2eee | f2ed2fed | f/e/d-d4 B2 | c>d ee de d2 | c>d e/f/e/d/ cB A2 |  a2 A>B cd cB |1 c/B/(A A)^G ABcd :|2 c/B/(A A)^G A4 || 

